X:2820
T:In Memory of Coleman
O:england
M:2/2
L:1/8
C:Ed Reavy
R:reel
N:No tune can adequately commemorate this
N:great fiddler. Ed felt that he
N:was the last of the great players,
N:and the only one he ever heard who
N:had that strange wildness in
N:his playing that only the great
N:ones possess. Ed wrote the tune as
N:if Mike were to play it. Perhaps he
N:alone had the tools to do
N:it complete justice.
K:Bb
F|DFBd cBGF|DF (3F=EF GFDF|GABc d^fga|(3bag (3ag^f dgga|
(3bag (3ag^f g=fdc|(3=Bcd BG FDCD|FGBd c2 =Bc|c=BcA  _BG G:||
A|B2 fB gagf|=ec (3cBc AFFA|B2 a/2g/2f/2=e/2 fdcA|FGAc BGGA|
B2 fB DBfB|DBfB AF (3F=EF|GABc dbag |d (3cBA BG G:||
